X: 1
T: En avant blonde
Z: Roger N\'egaret (94-95)
R: valse
C: trad Qu\'ebec
M: 3/4
L: 1/8
K: Am
|:\
"Am"A2 c2 d2 | e4 e2 | "G"G2 B2 c2 | d4 d2 |\
d2 c2 B2 | "Am"A4 c2 | "G"B4 G2 | "Am"A6 :|
|:\
e2 ed cd | e2 c2 A2 | "G"d2 dc Bc | d2 B2 G2 |\
"Am"e2 ed cd | e2 c2 A2 | "G"d2 B2 G2 | "Am"A6 :|
%
W:  En avant blonde, t'as le coeur tendre,
W:  Vient donc m'apprendre \`a bien danser,
W:  En avant brune, fait ma fortune,
W:  Vient donc m'apprendre \`a bien valser.
